X: 41697
T: Valerie
R: reel
M: 4/4
K: Adorian
|:A2ed e~A3|fged BAGB|A2ed e~A3|1 BAGE EDEG:|2 BAGE A4||
A2af ~g2ee|~f2df g~e3|A2ag abag|edeg ~a3a|
A2af ~g2ee|~f2df g~e3|dega ~b3g|edea gedB||

